svgs/batchuninstaller.svg

<svg xmlns="http://www.w3.org/2000/svg" viewBox="0 0 192 192"><path d="M62.366 175.526c-6.241-1.248-11.54-5.413-14.465-11.368l-1.44-2.932-.142-52.537-.142-52.537h99.622v51.269c0 45.019-.099 51.605-.816 54.02-1.803 6.068-6.107 10.76-12.089 13.175l-2.999 1.211-32.591.085c-17.926.046-33.648-.127-34.938-.386ZM36.293 36.337v-9.908h29.482l5.195-5.214L76.165 16h39.67l5.195 5.215 5.195 5.214h29.482v19.816H36.293Z"/></svg>

<svg
    xmlns="http://www.w3.org/2000/svg"
    viewBox="0 0 192 192"
    id="vector">
    <path
        id="path"
        d="M 62.366 175.526 C 56.125 174.278 50.826 170.113 47.901 164.158 L 46.461 161.226 L 46.319 108.689 L 46.177 56.152 L 145.799 56.152 L 145.799 107.421 C 145.799 152.44 145.7 159.026 144.983 161.441 C 143.18 167.509 138.876 172.201 132.894 174.616 L 129.895 175.827 L 97.304 175.912 C 79.378 175.958 63.656 175.785 62.366 175.526 Z M 36.293 36.337 L 36.293 26.429 L 65.775 26.429 L 70.97 21.215 L 76.165 16 L 115.835 16 L 121.03 21.215 L 126.225 26.429 L 155.707 26.429 L 155.707 46.245 L 36.293 46.245 Z"
        fill="#000000"
        stroke-width="12"/>
</svg>
